X: 12779
T: Faustiñeira
R: jig
M: 6/8
K: Gmajor
gf|:e2d dgf|e2d dBc|ded cBG|A2G Ggf|
eda agf|e2d dBc|ded cAB|1 G3- Ggf:|2 G3 gfe||
|:d>dd gab|a2 g gfe|d>dd gba|aba gfe|d>dd gab|
b2a abc'|1 d'>d'd' e'd'a-|aba gfe:|2 d>dd e>ee|f>ff a||

